app/images/icon/tax.svg

<svg width="232" height="36" viewBox="0 0 232 36" fill="none" xmlns="http://www.w3.org/2000/svg">
<path d="M57.44 2.8V4.56H52.96V14H51.12V2.8H57.44ZM60.8778 14.208C59.7044 14.208 58.7071 13.8027 57.8858 12.992C57.0644 12.1813 56.6538 11.184 56.6538 10C56.6538 8.816 57.0644 7.81867 57.8858 7.008C58.7071 6.19733 59.7044 5.792 60.8778 5.792C62.0618 5.792 63.0591 6.19733 63.8698 7.008C64.6911 7.81867 65.1018 8.816 65.1018 10C65.1018 11.184 64.6911 12.1813 63.8698 12.992C63.0591 13.8027 62.0618 14.208 60.8778 14.208ZM59.1018 11.808C59.5818 12.288 60.1738 12.528 60.8778 12.528C61.5818 12.528 62.1738 12.288 62.6538 11.808C63.1338 11.328 63.3738 10.7253 63.3738 10C63.3738 9.27467 63.1338 8.672 62.6538 8.192C62.1738 7.712 61.5818 7.472 60.8778 7.472C60.1738 7.472 59.5818 7.712 59.1018 8.192C58.6218 8.672 58.3818 9.27467 58.3818 10C58.3818 10.7253 58.6218 11.328 59.1018 11.808ZM70.4403 14.208C69.2349 14.208 68.2269 13.8027 67.4163 12.992C66.6163 12.1813 66.2163 11.184 66.2163 10C66.2163 8.80533 66.6163 7.808 67.4163 7.008C68.2269 6.19733 69.2349 5.792 70.4403 5.792C71.2189 5.792 71.9283 5.97867 72.5683 6.352C73.2083 6.72533 73.6883 7.22667 74.0083 7.856L72.5203 8.72C72.3389 8.336 72.0616 8.03733 71.6883 7.824C71.3256 7.6 70.9043 7.488 70.4243 7.488C69.7203 7.488 69.1283 7.728 68.6483 8.208C68.1789 8.688 67.9443 9.28533 67.9443 10C67.9443 10.7147 68.1789 11.312 68.6483 11.792C69.1283 12.272 69.7203 12.512 70.4243 12.512C70.8936 12.512 71.3149 12.4 71.6883 12.176C72.0723 11.952 72.3603 11.6533 72.5523 11.28L74.0403 12.128C73.6989 12.768 73.2083 13.2747 72.5683 13.648C71.9283 14.0213 71.2189 14.208 70.4403 14.208ZM82.4561 6V14H80.7281V7.632H77.0641V14H75.3361V6H82.4561ZM88.2371 14.208C87.0638 14.208 86.0665 13.8027 85.2451 12.992C84.4238 12.1813 84.0131 11.184 84.0131 10C84.0131 8.816 84.4238 7.81867 85.2451 7.008C86.0665 6.19733 87.0638 5.792 88.2371 5.792C89.4211 5.792 90.4185 6.19733 91.2291 7.008C92.0505 7.81867 92.4611 8.816 92.4611 10C92.4611 11.184 92.0505 12.1813 91.2291 12.992C90.4185 13.8027 89.4211 14.208 88.2371 14.208ZM86.4611 11.808C86.9411 12.288 87.5331 12.528 88.2371 12.528C88.9411 12.528 89.5331 12.288 90.0131 11.808C90.4931 11.328 90.7331 10.7253 90.7331 10C90.7331 9.27467 90.4931 8.672 90.0131 8.192C89.5331 7.712 88.9411 7.472 88.2371 7.472C87.5331 7.472 86.9411 7.712 86.4611 8.192C85.9811 8.672 85.7411 9.27467 85.7411 10C85.7411 10.7253 85.9811 11.328 86.4611 11.808ZM103.496 6H105.224V14H94.0236V6H95.7516V12.368H98.7596V6H100.488V12.368H103.496V6ZM113.979 6V14H112.251V7.664H109.579V10.64C109.579 11.9093 109.301 12.8107 108.747 13.344C108.192 13.8773 107.403 14.096 106.379 14V12.384C106.869 12.4693 107.237 12.368 107.483 12.08C107.728 11.792 107.851 11.2853 107.851 10.56V6H113.979ZM121.784 6H123.112V14H121.416V8.912L117.32 14H115.992V6H117.688V11.072L121.784 6ZM130.509 6H132.237V14H130.509V10.816H126.845V14H125.117V6H126.845V9.184H130.509V6ZM140.578 6H142.306V14H140.578V12.848C139.928 13.7547 138.994 14.208 137.778 14.208C136.68 14.208 135.741 13.8027 134.962 12.992C134.184 12.1707 133.794 11.1733 133.794 10C133.794 8.816 134.184 7.81867 134.962 7.008C135.741 6.19733 136.68 5.792 137.778 5.792C138.994 5.792 139.928 6.24 140.578 7.136V6ZM136.242 11.84C136.722 12.32 137.325 12.56 138.05 12.56C138.776 12.56 139.378 12.32 139.858 11.84C140.338 11.3493 140.578 10.736 140.578 10C140.578 9.264 140.338 8.656 139.858 8.176C139.378 7.68533 138.776 7.44 138.05 7.44C137.325 7.44 136.722 7.68533 136.242 8.176C135.762 8.656 135.522 9.264 135.522 10C135.522 10.736 135.762 11.3493 136.242 11.84ZM153.857 9.888C154.646 10.2507 155.041 10.864 155.041 11.728C155.041 12.4 154.811 12.9493 154.353 13.376C153.905 13.792 153.259 14 152.417 14H148.321V6H152.097C152.918 6 153.553 6.208 154.001 6.624C154.459 7.02933 154.689 7.55733 154.689 8.208C154.689 8.96533 154.411 9.52533 153.857 9.888ZM151.969 7.472H149.969V9.248H151.969C152.673 9.248 153.025 8.94933 153.025 8.352C153.025 7.76533 152.673 7.472 151.969 7.472ZM152.257 12.496C152.982 12.496 153.345 12.1813 153.345 11.552C153.345 11.2747 153.249 11.0613 153.057 10.912C152.865 10.752 152.598 10.672 152.257 10.672H149.969V12.496H152.257ZM163.517 14H161.454L158.174 10.304V14H156.446V6H158.174V9.536L161.278 6H163.39L159.87 9.92L163.517 14ZM171.432 6V14H169.704V7.664H167.032V10.64C167.032 11.9093 166.755 12.8107 166.2 13.344C165.645 13.8773 164.856 14.096 163.832 14V12.384C164.323 12.4693 164.691 12.368 164.936 12.08C165.181 11.792 165.304 11.2853 165.304 10.56V6H171.432ZM180.582 5.792C181.755 5.792 182.752 6.19733 183.574 7.008C184.395 7.81867 184.806 8.816 184.806 10C184.806 11.184 184.395 12.1813 183.574 12.992C182.752 13.8027 181.755 14.208 180.582 14.208C179.547 14.208 178.651 13.8933 177.894 13.264C177.147 12.624 176.683 11.808 176.502 10.816H175.174V14H173.446V6H175.174V9.184H176.502C176.683 8.192 177.147 7.38133 177.894 6.752C178.651 6.112 179.547 5.792 180.582 5.792ZM178.806 11.808C179.286 12.288 179.878 12.528 180.582 12.528C181.286 12.528 181.878 12.288 182.358 11.808C182.838 11.328 183.078 10.7253 183.078 10C183.078 9.27467 182.838 8.672 182.358 8.192C181.878 7.712 181.286 7.472 180.582 7.472C179.878 7.472 179.286 7.712 178.806 8.192C178.326 8.672 178.086 9.27467 178.086 10C178.086 10.7253 178.326 11.328 178.806 11.808ZM191.075 6H192.803V14H191.075V11.296C190.435 11.5307 189.763 11.648 189.059 11.648C188.067 11.648 187.283 11.4027 186.707 10.912C186.131 10.4213 185.843 9.70133 185.843 8.752V6H187.571V8.592C187.571 9.552 188.142 10.032 189.283 10.032C189.955 10.032 190.552 9.90933 191.075 9.664V6ZM196.181 10.736C196.309 11.344 196.602 11.8133 197.061 12.144C197.519 12.464 198.079 12.624 198.741 12.624C199.658 12.624 200.346 12.2933 200.805 11.632L202.229 12.464C201.439 13.6267 200.271 14.208 198.725 14.208C197.423 14.208 196.373 13.8133 195.573 13.024C194.773 12.224 194.373 11.216 194.373 10C194.373 8.80533 194.767 7.808 195.557 7.008C196.346 6.19733 197.359 5.792 198.597 5.792C199.77 5.792 200.73 6.20267 201.477 7.024C202.234 7.84533 202.613 8.84267 202.613 10.016C202.613 10.1973 202.591 10.4373 202.549 10.736H196.181ZM196.164 9.328H200.869C200.751 8.67733 200.479 8.18667 200.053 7.856C199.637 7.52533 199.146 7.36 198.581 7.36C197.941 7.36 197.407 7.536 196.981 7.888C196.554 8.24 196.282 8.72 196.164 9.328ZM209.525 6H211.253V14H209.525V10.816H205.861V14H204.133V6H205.861V9.184H209.525V6ZM219.594 6H221.322V14H219.594V12.848C218.943 13.7547 218.01 14.208 216.794 14.208C215.695 14.208 214.757 13.8027 213.978 12.992C213.199 12.1707 212.81 11.1733 212.81 10C212.81 8.816 213.199 7.81867 213.978 7.008C214.757 6.19733 215.695 5.792 216.794 5.792C218.01 5.792 218.943 6.24 219.594 7.136V6ZM215.258 11.84C215.738 12.32 216.341 12.56 217.066 12.56C217.791 12.56 218.394 12.32 218.874 11.84C219.354 11.3493 219.594 10.736 219.594 10C219.594 9.264 219.354 8.656 218.874 8.176C218.394 7.68533 217.791 7.44 217.066 7.44C216.341 7.44 215.738 7.68533 215.258 8.176C214.778 8.656 214.538 9.264 214.538 10C214.538 10.736 214.778 11.3493 215.258 11.84ZM56.544 27.888C57.3333 28.2507 57.728 28.864 57.728 29.728C57.728 30.4 57.4987 30.9493 57.04 31.376C56.592 31.792 55.9467 32 55.104 32H51.008V24H54.784C55.6053 24 56.24 24.208 56.688 24.624C57.1467 25.0293 57.376 25.5573 57.376 26.208C57.376 26.9653 57.0987 27.5253 56.544 27.888ZM54.656 25.472H52.656V27.248H54.656C55.36 27.248 55.712 26.9493 55.712 26.352C55.712 25.7653 55.36 25.472 54.656 25.472ZM54.944 30.496C55.6693 30.496 56.032 30.1813 56.032 29.552C56.032 29.2747 55.936 29.0613 55.744 28.912C55.552 28.752 55.2853 28.672 54.944 28.672H52.656V30.496H54.944ZM66.909 32.208C65.7037 32.208 64.6957 31.8027 63.885 30.992C63.085 30.1813 62.685 29.184 62.685 28C62.685 26.8053 63.085 25.808 63.885 25.008C64.6957 24.1973 65.7037 23.792 66.909 23.792C67.6877 23.792 68.397 23.9787 69.037 24.352C69.677 24.7253 70.157 25.2267 70.477 25.856L68.989 26.72C68.8077 26.336 68.5303 26.0373 68.157 25.824C67.7943 25.6 67.373 25.488 66.893 25.488C66.189 25.488 65.597 25.728 65.117 26.208C64.6477 26.688 64.413 27.2853 64.413 28C64.413 28.7147 64.6477 29.312 65.117 29.792C65.597 30.272 66.189 30.512 66.893 30.512C67.3623 30.512 67.7837 30.4 68.157 30.176C68.541 29.952 68.829 29.6533 69.021 29.28L70.509 30.128C70.1677 30.768 69.677 31.2747 69.037 31.648C68.397 32.0213 67.6877 32.208 66.909 32.208ZM77.7919 24V25.664H75.1839V32H73.4559V25.664H70.8319V24H77.7919ZM82.4246 32.208C81.2513 32.208 80.254 31.8027 79.4326 30.992C78.6113 30.1813 78.2006 29.184 78.2006 28C78.2006 26.816 78.6113 25.8187 79.4326 25.008C80.254 24.1973 81.2513 23.792 82.4246 23.792C83.6086 23.792 84.606 24.1973 85.4166 25.008C86.238 25.8187 86.6486 26.816 86.6486 28C86.6486 29.184 86.238 30.1813 85.4166 30.992C84.606 31.8027 83.6086 32.208 82.4246 32.208ZM80.6486 29.808C81.1286 30.288 81.7206 30.528 82.4246 30.528C83.1286 30.528 83.7206 30.288 84.2006 29.808C84.6806 29.328 84.9206 28.7253 84.9206 28C84.9206 27.2747 84.6806 26.672 84.2006 26.192C83.7206 25.712 83.1286 25.472 82.4246 25.472C81.7206 25.472 81.1286 25.712 80.6486 26.192C80.1686 26.672 79.9286 27.2747 79.9286 28C79.9286 28.7253 80.1686 29.328 80.6486 29.808ZM94.0031 24H95.3311V32H93.6351V26.912L89.5391 32H88.2111V24H89.9071V29.072L94.0031 24ZM105.496 24V32H103.816V26.736L101.512 30.4H101.304L99.0161 26.752V32H97.3361V24H99.0961L101.416 27.696L103.736 24H105.496ZM111.268 32.208C110.095 32.208 109.098 31.8027 108.276 30.992C107.455 30.1813 107.044 29.184 107.044 28C107.044 26.816 107.455 25.8187 108.276 25.008C109.098 24.1973 110.095 23.792 111.268 23.792C112.452 23.792 113.45 24.1973 114.26 25.008C115.082 25.8187 115.492 26.816 115.492 28C115.492 29.184 115.082 30.1813 114.26 30.992C113.45 31.8027 112.452 32.208 111.268 32.208ZM109.492 29.808C109.972 30.288 110.564 30.528 111.268 30.528C111.972 30.528 112.564 30.288 113.044 29.808C113.524 29.328 113.764 28.7253 113.764 28C113.764 27.2747 113.524 26.672 113.044 26.192C112.564 25.712 111.972 25.472 111.268 25.472C110.564 25.472 109.972 25.712 109.492 26.192C109.012 26.672 108.772 27.2747 108.772 28C108.772 28.7253 109.012 29.328 109.492 29.808ZM120.831 32.208C119.626 32.208 118.618 31.8027 117.807 30.992C117.007 30.1813 116.607 29.184 116.607 28C116.607 26.8053 117.007 25.808 117.807 25.008C118.618 24.1973 119.626 23.792 120.831 23.792C121.61 23.792 122.319 23.9787 122.959 24.352C123.599 24.7253 124.079 25.2267 124.399 25.856L122.911 26.72C122.73 26.336 122.452 26.0373 122.079 25.824C121.716 25.6 121.295 25.488 120.815 25.488C120.111 25.488 119.519 25.728 119.039 26.208C118.57 26.688 118.335 27.2853 118.335 28C118.335 28.7147 118.57 29.312 119.039 29.792C119.519 30.272 120.111 30.512 120.815 30.512C121.284 30.512 121.706 30.4 122.079 30.176C122.463 29.952 122.751 29.6533 122.943 29.28L124.431 30.128C124.09 30.768 123.599 31.2747 122.959 31.648C122.319 32.0213 121.61 32.208 120.831 32.208ZM131.714 24V25.664H129.106V32H127.378V25.664H124.754V24H131.714ZM136.371 26.72C137.224 26.72 137.923 26.9653 138.467 27.456C139.011 27.936 139.283 28.5707 139.283 29.36C139.283 30.1387 139.011 30.7733 138.467 31.264C137.923 31.7547 137.224 32 136.371 32H132.883V24H134.611V26.72H136.371ZM136.387 30.448C136.728 30.448 137.011 30.3467 137.235 30.144C137.47 29.9413 137.587 29.68 137.587 29.36C137.587 29.0293 137.47 28.768 137.235 28.576C137.011 28.3733 136.728 28.272 136.387 28.272H134.611V30.448H136.387Z" fill="#0037A1"/>
<circle cx="16" cy="18" r="15.25" fill="white" stroke="#0037A1" stroke-width="1.5"/>
<rect x="29.3535" y="4.90381" width="6" height="7" transform="rotate(45 29.3535 4.90381)" fill="white"/>
<path d="M9 15.5L16 22.5L32.5 6" stroke="#0037A1" stroke-width="1.5" stroke-linecap="round" stroke-linejoin="round"/>
</svg>

<svg width="232" height="36" fill="none" xmlns="http://www.w3.org/2000/svg">
    <path d="M57.44 2.8v1.76h-4.48V14h-1.84V2.8h6.32Zm3.438 11.408c-1.174 0-2.17-.405-2.992-1.216-.822-.81-1.232-1.808-1.232-2.992s.41-2.181 1.232-2.992c.821-.81 1.818-1.216 2.992-1.216 1.184 0 2.181.405 2.992 1.216.821.81 1.232 1.808 1.232 2.992s-.41 2.181-1.232 2.992c-.81.81-1.808 1.216-2.992 1.216Zm-1.776-2.4c.48.48 1.072.72 1.776.72s1.296-.24 1.776-.72.72-1.083.72-1.808c0-.725-.24-1.328-.72-1.808s-1.072-.72-1.776-.72-1.296.24-1.776.72-.72 1.083-.72 1.808c0 .725.24 1.328.72 1.808Zm11.338 2.4c-1.205 0-2.213-.405-3.024-1.216-.8-.81-1.2-1.808-1.2-2.992 0-1.195.4-2.192 1.2-2.992.81-.81 1.819-1.216 3.024-1.216.779 0 1.488.187 2.128.56.64.373 1.12.875 1.44 1.504l-1.488.864a1.99 1.99 0 0 0-.832-.896c-.362-.224-.784-.336-1.264-.336-.704 0-1.296.24-1.776.72-.47.48-.704 1.077-.704 1.792 0 .715.235 1.312.704 1.792.48.48 1.072.72 1.776.72.47 0 .89-.112 1.264-.336a2.18 2.18 0 0 0 .864-.896l1.488.848a3.806 3.806 0 0 1-1.472 1.52c-.64.373-1.35.56-2.128.56ZM82.456 6v8h-1.728V7.632h-3.664V14h-1.728V6h7.12Zm5.781 8.208c-1.173 0-2.17-.405-2.992-1.216-.821-.81-1.232-1.808-1.232-2.992s.41-2.181 1.232-2.992c.822-.81 1.819-1.216 2.992-1.216 1.184 0 2.181.405 2.992 1.216.822.81 1.232 1.808 1.232 2.992s-.41 2.181-1.232 2.992c-.81.81-1.808 1.216-2.992 1.216Zm-1.776-2.4c.48.48 1.072.72 1.776.72s1.296-.24 1.776-.72.72-1.083.72-1.808c0-.725-.24-1.328-.72-1.808s-1.072-.72-1.776-.72-1.296.24-1.776.72-.72 1.083-.72 1.808c0 .725.24 1.328.72 1.808ZM103.496 6h1.728v8h-11.2V6h1.728v6.368h3.008V6h1.728v6.368h3.008V6Zm10.483 0v8h-1.728V7.664h-2.672v2.976c0 1.27-.278 2.17-.832 2.704-.555.533-1.344.752-2.368.656v-1.616c.49.085.858-.016 1.104-.304.245-.288.368-.795.368-1.52V6h6.128Zm7.805 0h1.328v8h-1.696V8.912L117.32 14h-1.328V6h1.696v5.072L121.784 6Zm8.725 0h1.728v8h-1.728v-3.184h-3.664V14h-1.728V6h1.728v3.184h3.664V6Zm10.069 0h1.728v8h-1.728v-1.152c-.65.907-1.584 1.36-2.8 1.36-1.098 0-2.037-.405-2.816-1.216-.778-.821-1.168-1.819-1.168-2.992 0-1.184.39-2.181 1.168-2.992.779-.81 1.718-1.216 2.816-1.216 1.216 0 2.15.448 2.8 1.344V6Zm-4.336 5.84c.48.48 1.083.72 1.808.72.726 0 1.328-.24 1.808-.72.48-.49.72-1.104.72-1.84s-.24-1.344-.72-1.824c-.48-.49-1.082-.736-1.808-.736-.725 0-1.328.245-1.808.736-.48.48-.72 1.088-.72 1.824s.24 1.35.72 1.84Zm17.615-1.952c.789.363 1.184.976 1.184 1.84 0 .672-.23 1.221-.688 1.648-.448.416-1.094.624-1.936.624h-4.096V6h3.776c.821 0 1.456.208 1.904.624.458.405.688.933.688 1.584 0 .757-.278 1.317-.832 1.68Zm-1.888-2.416h-2v1.776h2c.704 0 1.056-.299 1.056-.896 0-.587-.352-.88-1.056-.88Zm.288 5.024c.725 0 1.088-.315 1.088-.944 0-.277-.096-.49-.288-.64-.192-.16-.459-.24-.8-.24h-2.288v1.824h2.288ZM163.517 14h-2.063l-3.28-3.696V14h-1.728V6h1.728v3.536L161.278 6h2.112l-3.52 3.92 3.647 4.08Zm7.915-8v8h-1.728V7.664h-2.672v2.976c0 1.27-.277 2.17-.832 2.704-.555.533-1.344.752-2.368.656v-1.616c.491.085.859-.016 1.104-.304.245-.288.368-.795.368-1.52V6h6.128Zm9.15-.208c1.173 0 2.17.405 2.992 1.216.821.81 1.232 1.808 1.232 2.992s-.411 2.181-1.232 2.992c-.822.81-1.819 1.216-2.992 1.216-1.035 0-1.931-.315-2.688-.944-.747-.64-1.211-1.456-1.392-2.448h-1.328V14h-1.728V6h1.728v3.184h1.328c.181-.992.645-1.803 1.392-2.432.757-.64 1.653-.96 2.688-.96Zm-1.776 6.016c.48.48 1.072.72 1.776.72s1.296-.24 1.776-.72.72-1.083.72-1.808c0-.725-.24-1.328-.72-1.808s-1.072-.72-1.776-.72-1.296.24-1.776.72-.72 1.083-.72 1.808c0 .725.24 1.328.72 1.808ZM191.075 6h1.728v8h-1.728v-2.704a5.809 5.809 0 0 1-2.016.352c-.992 0-1.776-.245-2.352-.736-.576-.49-.864-1.21-.864-2.16V6h1.728v2.592c0 .96.571 1.44 1.712 1.44.672 0 1.269-.123 1.792-.368V6Zm5.106 4.736c.128.608.421 1.077.88 1.408.458.32 1.018.48 1.68.48.917 0 1.605-.33 2.064-.992l1.424.832c-.79 1.163-1.958 1.744-3.504 1.744-1.302 0-2.352-.395-3.152-1.184-.8-.8-1.2-1.808-1.2-3.024 0-1.195.394-2.192 1.184-2.992.789-.81 1.802-1.216 3.04-1.216 1.173 0 2.133.41 2.88 1.232.757.821 1.136 1.819 1.136 2.992 0 .181-.022.421-.064.72h-6.368Zm-.017-1.408h4.705c-.118-.65-.39-1.141-.816-1.472a2.295 2.295 0 0 0-1.472-.496c-.64 0-1.174.176-1.6.528-.427.352-.699.832-.817 1.44ZM209.525 6h1.728v8h-1.728v-3.184h-3.664V14h-1.728V6h1.728v3.184h3.664V6Zm10.069 0h1.728v8h-1.728v-1.152c-.651.907-1.584 1.36-2.8 1.36-1.099 0-2.037-.405-2.816-1.216-.779-.821-1.168-1.819-1.168-2.992 0-1.184.389-2.181 1.168-2.992.779-.81 1.717-1.216 2.816-1.216 1.216 0 2.149.448 2.8 1.344V6Zm-4.336 5.84c.48.48 1.083.72 1.808.72.725 0 1.328-.24 1.808-.72.48-.49.72-1.104.72-1.84s-.24-1.344-.72-1.824c-.48-.49-1.083-.736-1.808-.736-.725 0-1.328.245-1.808.736-.48.48-.72 1.088-.72 1.824s.24 1.35.72 1.84ZM56.544 27.888c.79.363 1.184.976 1.184 1.84 0 .672-.23 1.221-.688 1.648-.448.416-1.093.624-1.936.624h-4.096v-8h3.776c.821 0 1.456.208 1.904.624.459.405.688.933.688 1.584 0 .757-.277 1.317-.832 1.68Zm-1.888-2.416h-2v1.776h2c.704 0 1.056-.299 1.056-.896 0-.587-.352-.88-1.056-.88Zm.288 5.024c.725 0 1.088-.315 1.088-.944 0-.277-.096-.49-.288-.64-.192-.16-.459-.24-.8-.24h-2.288v1.824h2.288Zm11.965 1.712c-1.205 0-2.213-.405-3.024-1.216-.8-.81-1.2-1.808-1.2-2.992 0-1.195.4-2.192 1.2-2.992.81-.81 1.819-1.216 3.024-1.216.779 0 1.488.187 2.128.56.64.373 1.12.875 1.44 1.504l-1.488.864a1.988 1.988 0 0 0-.832-.896c-.363-.224-.784-.336-1.264-.336-.704 0-1.296.24-1.776.72-.47.48-.704 1.077-.704 1.792 0 .715.235 1.312.704 1.792.48.48 1.072.72 1.776.72.47 0 .89-.112 1.264-.336a2.18 2.18 0 0 0 .864-.896l1.488.848a3.805 3.805 0 0 1-1.472 1.52c-.64.373-1.35.56-2.128.56ZM77.792 24v1.664h-2.608V32h-1.728v-6.336h-2.624V24h6.96Zm4.633 8.208c-1.174 0-2.171-.405-2.992-1.216-.822-.81-1.232-1.808-1.232-2.992s.41-2.181 1.232-2.992c.821-.81 1.818-1.216 2.992-1.216 1.184 0 2.181.405 2.992 1.216.821.81 1.232 1.808 1.232 2.992s-.411 2.181-1.232 2.992c-.811.81-1.808 1.216-2.992 1.216Zm-1.776-2.4c.48.48 1.072.72 1.776.72s1.296-.24 1.776-.72.72-1.083.72-1.808c0-.725-.24-1.328-.72-1.808s-1.072-.72-1.776-.72-1.296.24-1.776.72-.72 1.083-.72 1.808c0 .725.24 1.328.72 1.808ZM94.003 24h1.328v8h-1.696v-5.088L89.54 32h-1.328v-8h1.696v5.072L94.003 24Zm11.493 0v8h-1.68v-5.264l-2.304 3.664h-.208l-2.288-3.648V32h-1.68v-8h1.76l2.32 3.696 2.32-3.696h1.76Zm5.772 8.208c-1.173 0-2.17-.405-2.992-1.216-.821-.81-1.232-1.808-1.232-2.992s.411-2.181 1.232-2.992c.822-.81 1.819-1.216 2.992-1.216 1.184 0 2.182.405 2.992 1.216.822.81 1.232 1.808 1.232 2.992s-.41 2.181-1.232 2.992c-.81.81-1.808 1.216-2.992 1.216Zm-1.776-2.4c.48.48 1.072.72 1.776.72s1.296-.24 1.776-.72.72-1.083.72-1.808c0-.725-.24-1.328-.72-1.808s-1.072-.72-1.776-.72-1.296.24-1.776.72-.72 1.083-.72 1.808c0 .725.24 1.328.72 1.808Zm11.339 2.4c-1.205 0-2.213-.405-3.024-1.216-.8-.81-1.2-1.808-1.2-2.992 0-1.195.4-2.192 1.2-2.992.811-.81 1.819-1.216 3.024-1.216.779 0 1.488.187 2.128.56.64.373 1.12.875 1.44 1.504l-1.488.864a1.988 1.988 0 0 0-.832-.896c-.363-.224-.784-.336-1.264-.336-.704 0-1.296.24-1.776.72-.469.48-.704 1.077-.704 1.792 0 .715.235 1.312.704 1.792.48.48 1.072.72 1.776.72.469 0 .891-.112 1.264-.336a2.18 2.18 0 0 0 .864-.896l1.488.848a3.803 3.803 0 0 1-1.472 1.52c-.64.373-1.349.56-2.128.56ZM131.714 24v1.664h-2.608V32h-1.728v-6.336h-2.624V24h6.96Zm4.657 2.72c.853 0 1.552.245 2.096.736.544.48.816 1.115.816 1.904 0 .779-.272 1.413-.816 1.904-.544.49-1.243.736-2.096.736h-3.488v-8h1.728v2.72h1.76Zm.016 3.728c.341 0 .624-.101.848-.304a.987.987 0 0 0 .352-.784c0-.33-.117-.592-.352-.784-.224-.203-.507-.304-.848-.304h-1.776v2.176h1.776Z" fill="#0037A1"/>
    <circle cx="16" cy="18" r="15.25" fill="#fff" stroke="#0037A1" stroke-width="1.5"/>
    <path fill="#fff" d="m29.354 4.904 4.242 4.243-4.95 4.95-4.242-4.243z"/>
    <path d="m9 15.5 7 7L32.5 6" stroke="#0037A1" stroke-width="1.5" stroke-linecap="round" stroke-linejoin="round"/>
</svg>
